src/icons/svg/ArrowRightCaret.svg

<svg width="24" height="24" viewBox="0 0 24 24" fill="none" xmlns="http://www.w3.org/2000/svg">
<path d="M10.276 5.42C10.778 5.91 15.678 11.055 15.678 11.055C15.946 11.317 16.08 11.659 16.08 12.001C16.08 12.343 15.946 12.685 15.678 12.947C15.678 12.947 10.777 18.093 10.276 18.581C9.77397 19.071 8.87297 19.104 8.33597 18.581C7.80097 18.059 7.75897 17.331 8.33597 16.691L12.834 12.001L8.33797 7.311C7.76097 6.671 7.80297 5.941 8.33797 5.42C8.87297 4.899 9.77597 4.93 10.276 5.42V5.42Z" fill="#1C2125"/>
</svg>

<!-- Generated by IcoMoon.io -->
<svg version="1.1" xmlns="http://www.w3.org/2000/svg" width="24" height="24" viewBox="0 0 24 24">
<title>arrow-right-caret</title>
<path fill="#444" d="M10.276 5.42c0.502 0.49 5.402 5.635 5.402 5.635 0.268 0.262 0.402 0.604 0.402 0.946s-0.134 0.684-0.402 0.946c0 0-4.901 5.146-5.402 5.634-0.502 0.49-1.403 0.523-1.94 0-0.535-0.522-0.577-1.25 0-1.89l4.498-4.69-4.496-4.69c-0.577-0.64-0.535-1.37 0-1.891s1.438-0.49 1.938 0z"></path>
</svg>
